T: Michael Joseph Dunne
M: 4/4
L: 1/8
K: Dmaj
dAGE DFAc | dAcA BFAF | GABc dAFA | GEFD EGAc |dAGE D2 Ac | dAcA BF A2 | GABc dA F2 | GEFE D2 :|eA^GA fAGA | gAfA eA^GA | gAfA eAdf | edcB ABcA |dAGE DFAc | dAcA B2 AF | GABc d2 FA | G2 FE D2 :|
